X: 1
T: the Zoom Tune
C: Fiddle Hell Cape Breton Composition Class 2021-11-__
R: strathspey
S: Fiddle Hell Online 2021-11-__ tune-writing workshop led by Andrea Beaton
Z: 2021 John Chambers <jc:trillian.mit.edu>
M: 4/4
L: 1/8
K: D
B/ \
| "D"A<D D>E D>F A<d | "Em"B<E E>F "G"G>A B<d | "D"A<D D>E D>F A<d | "G"B<A B>d "A"e/e/e e2 |
| "D"A<D D>E D>F A<d | "Em"B<E E>F "G"G>A B>c | "D"d<f e>d B>d A>F | "A7"(3GBc (3dAG "D"F<D D> ||
B \
| "D"A>F D>F A<d d2 | "Em"B>G E>d "A"c<e e2 | "D"A>F D>F A<d d>A | "G"B<A B>d "A"e/e/e e2 |
| "D"(3AFE (3DFG A<d d2 | "Em"(3BGF (3Ecd "A"c<e e>A | "D"d<f e>d B<d A>F | "A"(3GBc (3dAG "D"F<D D3/ |]
